X:161
T:King Pippin Polka
R: polka 48
C:2/4
L:1/8
K:D
AA/d/ ff| gg/B/ ff| fe e/d/e| ed d/e/d| AA/d/ ff| gg/B/ ff| fe e/d/e|fe dd :|
K:G
dg B>B| d^c =c2|D/E/F/G/ A/B/c/d/| e/f/g/a/ bb| dg B>B| d^c =c2|F/G/A/B/ c/d/e/f/ | gg g z :|
K:D
a/a/a A/A/A |BA A/B/A| fe e/f/e/f/| ed d/c/d| a/a/a A/A/A | BA A/B/A| fe e/f/e/f/| ed d z:|

